public/cloud-icons/azure/ai/cognitive-services-personaliser.svg

<?xml version="1.0" encoding="UTF-8" standalone="no"?>
<!-- Generated by Microsoft Visio, SVG Export Cognitive Services Personaliser.svg Page-1 -->

<svg
   xmlns:dc="http://purl.org/dc/elements/1.1/"
   xmlns:cc="http://creativecommons.org/ns#"
   xmlns:rdf="http://www.w3.org/1999/02/22-rdf-syntax-ns#"
   xmlns:svg="http://www.w3.org/2000/svg"
   xmlns="http://www.w3.org/2000/svg"
   xmlns:sodipodi="http://sodipodi.sourceforge.net/DTD/sodipodi-0.dtd"
   xmlns:inkscape="http://www.inkscape.org/namespaces/inkscape"
   width="59.4744"
   height="47.017128"
   viewBox="0 0 59.474399 47.017128"
   xml:space="preserve"
   class="st7"
   version="1.1"
   id="svg65"
   sodipodi:docname="Cognitive Services Personaliser.svg"
   style="font-size:12px;overflow:visible;color-interpolation-filters:sRGB;fill:none;fill-rule:evenodd;stroke-linecap:square;stroke-miterlimit:3"
   inkscape:version="0.92.5 (2060ec1f9f, 2020-04-08)"><metadata
   id="metadata69"><rdf:RDF><cc:Work
       rdf:about=""><dc:format>image/svg+xml</dc:format><dc:type
         rdf:resource="http://purl.org/dc/dcmitype/StillImage" /></cc:Work></rdf:RDF></metadata><sodipodi:namedview
   pagecolor="#ffffff"
   bordercolor="#666666"
   borderopacity="1"
   objecttolerance="10"
   gridtolerance="10"
   guidetolerance="10"
   inkscape:pageopacity="0"
   inkscape:pageshadow="2"
   inkscape:window-width="640"
   inkscape:window-height="480"
   id="namedview67"
   showgrid="false"
   inkscape:zoom="2.0516387"
   inkscape:cx="29.736708"
   inkscape:cy="23.499324"
   inkscape:window-x="0"
   inkscape:window-y="0"
   inkscape:window-maximized="0"
   inkscape:current-layer="svg65" />
	<style
   type="text/css"
   id="style2">
	<![CDATA[
		.st1 {fill:url(#grad0-6);stroke:none;stroke-linecap:butt;stroke-width:34}
		.st2 {fill:url(#grad0-10);stroke:none;stroke-linecap:butt;stroke-width:34}
		.st3 {fill:#32bedd;stroke:none;stroke-linecap:butt;stroke-width:34}
		.st4 {fill:url(#grad0-16);stroke:none;stroke-linecap:butt;stroke-width:34}
		.st5 {fill:#50e6ff;stroke:none;stroke-linecap:butt;stroke-width:34}
		.st6 {fill:url(#grad0-22);stroke:none;stroke-linecap:butt;stroke-width:34}
		.st7 {fill:none;fill-rule:evenodd;font-size:12px;overflow:visible;stroke-linecap:square;stroke-miterlimit:3}
	]]>
	</style>

	<defs
   id="Patterns_And_Gradients">
		<linearGradient
   id="grad0-6"
   x1="0"
   y1="129.74166"
   x2="23.742797"
   y2="129.74166"
   gradientTransform="scale(1.3342994,0.74945699)"
   gradientUnits="userSpaceOnUse">
			<stop
   offset="0"
   stop-color="#0078d4"
   stop-opacity="1"
   id="stop4" />
			<stop
   offset="1"
   stop-color="#005ba1"
   stop-opacity="1"
   id="stop6" />
		</linearGradient>
		<linearGradient
   id="grad0-10"
   x1="-2.6875919"
   y1="73.840589"
   x2="42.946983"
   y2="73.840589"
   gradientTransform="scale(1.0336417,0.96745323)"
   gradientUnits="userSpaceOnUse">
			<stop
   offset="0.3"
   stop-color="#0078d4"
   stop-opacity="1"
   id="stop9" />
			<stop
   offset="1"
   stop-color="#5ea0ef"
   stop-opacity="1"
   id="stop11" />
		</linearGradient>
		<linearGradient
   id="grad0-16"
   x1="-8.7553017e-16"
   y1="103.10572"
   x2="13.586622"
   y2="103.10572"
   gradientTransform="scale(1.0144464,0.98575934)"
   gradientUnits="userSpaceOnUse">
			<stop
   offset="0.225"
   stop-color="#32bedd"
   stop-opacity="1"
   id="stop14" />
			<stop
   offset="1"
   stop-color="#198ab3"
   stop-opacity="1"
   id="stop16" />
		</linearGradient>
		<linearGradient
   id="grad0-22"
   x1="0"
   y1="99.412923"
   x2="17.279633"
   y2="99.412923"
   gradientTransform="scale(1.0144464,0.98575936)"
   gradientUnits="userSpaceOnUse">
			<stop
   offset="0.225"
   stop-color="#50e6ff"
   stop-opacity="1"
   id="stop19" />
			<stop
   offset="1"
   stop-color="#32bedd"
   stop-opacity="1"
   id="stop21" />
		</linearGradient>
	</defs>
	<g
   id="g63"
   transform="translate(-33.997793,-33.997195)">
		<title
   id="title25">Page-1</title>
		<g
   id="group19751-1"
   transform="translate(36.7758,-34.0157)">
			<title
   id="title27">Cognitive Services Personaliser.19751</title>
			<g
   id="group19752-2">
				<title
   id="title29">Sheet.19752</title>
				<g
   id="shape19753-3"
   transform="translate(11.8474,-29.2229)">
					<title
   id="title31">Sheet.19753</title>
					<path
   d="m 8.98,104.12 a 16.5349,16.0673 0 0 1 15.65,10.91 l 7.05,-1.11 A 23.5948,22.9276 -180 0 0 0,98.96 l 1.01,7.15 a 16.3928,15.9292 0 0 1 7.97,-1.99 z"
   class="st1"
   id="path33"
   inkscape:connector-curvature="0"
   style="fill:url(#grad0-6);stroke:none;stroke-width:34;stroke-linecap:butt" />
				</g>
				<g
   id="shape19754-7"
   transform="translate(0,-1.76863)">
					<title
   id="title36">Sheet.19754</title>
					<path
   d="M 36.38,87.38 A 16.3267,15.865 0 0 1 37.33,92.7 16.5183,16.0512 0 1 1 7.76,82.89 c 0,0 1.16,-1.58 1.69,-2.16 a 0.419566,0.407701 0 0 1 0.416262,0.03852 L 10.12,80.94 13.9,83.57 a 0.429477,0.417332 -180 0 0 0.660734,-0.407701 L 12.71,72.22 A 0.964671,0.937391 -180 0 0 11.60327,71.449541 L 0.35,73.26 A 0.429477,0.417332 -180 0 0 0.171602,74.011197 L 3.95,76.64 a 23.5849,22.9179 -180 1 0 39.14,8.52 z"
   class="st2"
   id="path38"
   inkscape:connector-curvature="0"
   style="fill:url(#grad0-10);stroke:none;stroke-width:34;stroke-linecap:butt" />
				</g>
				<g
   id="shape19755-11"
   transform="translate(32.1418,-3.25519)">
					<title
   id="title41">Sheet.19755</title>
					<path
   d="m 22.35,115.03 a 2.18372,2.12197 -180 0 0 2.2,-2.12 1.8038,1.75279 -180 0 0 0,-0.25 c -0.86,-6.68 -4.78,-12.11 -12.25,-12.11 -7.6,0 -11.54,4.6 -12.3,12.13 a 2.19694,2.13481 -180 0 0 1.96,2.34 h 0.22 z"
   class="st3"
   id="path43"
   inkscape:connector-curvature="0"
   style="fill:#32bedd;stroke:none;stroke-width:34;stroke-linecap:butt" />
				</g>
				<g
   id="shape19756-13"
   transform="translate(37.5301,-16.1507)">
					<title
   id="title46">Sheet.19756</title>
					<ellipse
   cx="6.8914499"
   cy="108.334"
   rx="6.8914499"
   ry="6.6965699"
   class="st4"
   id="ellipse48"
   style="fill:url(#grad0-16);stroke:none;stroke-width:34;stroke-linecap:butt" />
				</g>
				<g
   id="shape19757-17"
   transform="translate(15.8316)">
					<title
   id="title51">Sheet.19757</title>
					<path
   d="m 28.45,115.03 a 2.77839,2.69982 -180 0 0 2.79,-2.69 2.82464,2.74476 -180 0 0 -0.02,-0.32 C 30.12,103.53 25.14,96.61 15.63,96.61 5.96,96.61 0.97,102.46 0,112.02 a 2.7916,2.71266 -180 0 0 2.49,2.98 2.62311,2.54893 -180 0 0 0.28,0 z"
   class="st5"
   id="path53"
   inkscape:connector-curvature="0"
   style="fill:#50e6ff;stroke:none;stroke-width:34;stroke-linecap:butt" />
				</g>
				<g
   id="shape19758-19"
   transform="translate(22.6999,-16.3979)">
					<title
   id="title56">Sheet.19758</title>
					<ellipse
   cx="8.7646303"
   cy="106.514"
   rx="8.7646303"
   ry="8.5167799"
   class="st6"
   id="ellipse58"
   style="fill:url(#grad0-22);stroke:none;stroke-width:34;stroke-linecap:butt" />
				</g>
			</g>
		</g>
	</g>
</svg>

<svg xmlns="http://www.w3.org/2000/svg" xml:space="preserve" width="59.474" height="47.017" style="font-size:12px;overflow:visible;color-interpolation-filters:sRGB;fill-rule:evenodd;stroke-linecap:square;stroke-miterlimit:3" viewBox="0 0 59.474 47.017"><defs><linearGradient id="a" x1="0" x2="23.743" y1="129.742" y2="129.742" gradientTransform="scale(1.3343 .74946)" gradientUnits="userSpaceOnUse"><stop offset="0" stop-color="#0078d4"/><stop offset="1" stop-color="#005ba1"/></linearGradient><linearGradient id="b" x1="-2.688" x2="42.947" y1="73.841" y2="73.841" gradientTransform="scale(1.03364 .96745)" gradientUnits="userSpaceOnUse"><stop offset=".3" stop-color="#0078d4"/><stop offset="1" stop-color="#5ea0ef"/></linearGradient><linearGradient id="c" x1="0" x2="13.587" y1="103.106" y2="103.106" gradientTransform="scale(1.01445 .98576)" gradientUnits="userSpaceOnUse"><stop offset=".225" stop-color="#32bedd"/><stop offset="1" stop-color="#198ab3"/></linearGradient><linearGradient id="d" x1="0" x2="17.28" y1="99.413" y2="99.413" gradientTransform="scale(1.01445 .98576)" gradientUnits="userSpaceOnUse"><stop offset=".225" stop-color="#50e6ff"/><stop offset="1" stop-color="#32bedd"/></linearGradient></defs><g transform="translate(-33.998 -33.997)"><title>Page-1</title><g transform="translate(36.776 -34.016)"><title>Cognitive Services Personaliser.19751</title><title>Sheet.19752</title><g transform="translate(11.847 -29.223)"><title>Sheet.19753</title><path d="M8.98 104.12a16.535 16.067 0 0 1 15.65 10.91l7.05-1.11A23.595 22.928-180 0 0 0 98.96l1.01 7.15a16.393 15.93 0 0 1 7.97-1.99" style="fill:url(#a);stroke:none;stroke-width:34;stroke-linecap:butt"/></g><g transform="translate(0 -1.769)"><title>Sheet.19754</title><path d="M36.38 87.38a16.327 15.865 0 0 1 .95 5.32 16.518 16.051 0 1 1-29.57-9.81s1.16-1.58 1.69-2.16a.42.408 0 0 1 .416.039l.254.171 3.78 2.63a.43.417-180 0 0 .66-.408L12.71 72.22a.965.937-180 0 0-1.107-.77L.35 73.26a.43.417-180 0 0-.178.751L3.95 76.64a23.585 22.918-180 1 0 39.14 8.52z" style="fill:url(#b);stroke:none;stroke-width:34;stroke-linecap:butt"/></g><g transform="translate(32.142 -3.255)"><title>Sheet.19755</title><path d="M22.35 115.03a2.184 2.122-180 0 0 2.2-2.12 1.804 1.753-180 0 0 0-.25c-.86-6.68-4.78-12.11-12.25-12.11-7.6 0-11.54 4.6-12.3 12.13a2.197 2.135-180 0 0 1.96 2.34h.22z" style="fill:#32bedd;stroke:none;stroke-width:34;stroke-linecap:butt"/></g><g transform="translate(37.53 -16.15)"><title>Sheet.19756</title><ellipse cx="6.891" cy="108.334" rx="6.891" ry="6.697" style="fill:url(#c);stroke:none;stroke-width:34;stroke-linecap:butt"/></g><g transform="translate(15.832)"><title>Sheet.19757</title><path d="M28.45 115.03a2.778 2.7-180 0 0 2.79-2.69 2.825 2.745-180 0 0-.02-.32c-1.1-8.49-6.08-15.41-15.59-15.41-9.67 0-14.66 5.85-15.63 15.41A2.792 2.713-180 0 0 2.49 115a2.623 2.549-180 0 0 .28 0z" style="fill:#50e6ff;stroke:none;stroke-width:34;stroke-linecap:butt"/></g><g transform="translate(22.7 -16.398)"><title>Sheet.19758</title><ellipse cx="8.765" cy="106.514" rx="8.765" ry="8.517" style="fill:url(#d);stroke:none;stroke-width:34;stroke-linecap:butt"/></g></g></g></svg>
